Sources/FrostedUI/Resources/Icons.xcassets/arrowFatDownFilled24.imageset/arrow-fat-down-filled-24.svg

<svg width="24" height="24" viewBox="0 0 24 24" fill="none" xmlns="http://www.w3.org/2000/svg" data-fui-icon="true">
  <path
    d="M4.3931 15.0982C3.69536 14.2879 4.27103 13.0325 5.34031 13.0325H7.99992V3.78247C7.99992 2.81597 8.78342 2.03247 9.74992 2.03247H14.2499C15.2164 2.03247 15.9999 2.81598 15.9999 3.78247V13.0325H18.6595C19.7288 13.0325 20.3045 14.2879 19.6067 15.0982L13.326 22.3919C12.6278 23.2027 11.372 23.2027 10.6738 22.3919L4.3931 15.0982Z"
    fill="currentColor"
  />
</svg>

<svg xmlns="http://www.w3.org/2000/svg" width="24" height="24" fill="none" data-fui-icon="true" viewBox="0 0 24 24"><path fill="currentColor" d="M4.393 15.098c-.698-.81-.122-2.065.947-2.065H8v-9.25c0-.967.783-1.75 1.75-1.75h4.5c.966 0 1.75.783 1.75 1.75v9.25h2.66c1.069 0 1.645 1.255.947 2.065l-6.281 7.294a1.75 1.75 0 0 1-2.652 0z"/></svg>
